public/avatar/shoe/69.svg

<svg xmlns:xlink="http://www.w3.org/1999/xlink" height="38.3" width="36.05" xmlns="http://www.w3.org/2000/svg"><use height="17.45" transform="translate(13.5 10.35)" width="18.95" xlink:href="#a"/><defs><g id="a" fill-rule="evenodd"><path d="M-6.45-1.85q1.9-2.35 4.2-2.55 6-.5 8.5 2 .95.95 1.9 3.4l.5 2.4q0 .55-.85 1.05l.35.7q.3 1.95-.05 3.05-.1 1-1 1.4l-1.3.4q-1.1 1.75-3.55 2.6l-9.05.35q-2.25-.4-3.2-3-.8-2.2.65-3.25l1.05-2-.45-.5L-10 3l1.35-2 2.2-2.85" transform="translate(10.3 4.5)"/><path d="m2.2 11.6-4.7.55-4.5-.25q-1.55-.4-2.2-2-.45-1.5.25-2.45 1.3-1.75 2-3.9l.8-2.5Q-5.8.4.1.25h6.05L7.45 5Q8 7.25 7.2 8.35L6.35 9l-.85.15q-.75 1.55-3.3 2.45" fill="#71381e" transform="translate(10.3 4.5)"/><path d="M1.7 1Q2.4.4 4.8.45L6.95 2.5l.5 2.5-.1 3.05L6.8 5.4 5.65 3.7 5.6 5.4 3.8 7.15q-2.25 1-8.05.85-2.1-.05-3.05-1.1l-.6-1.1.75-1.9Q1.55 1.25 1.7 1" fill="#64321a" transform="translate(10.3 4.5)"/><path d="M-7.25 3.7 3.8-.05Q5.7.7 5.8.9l1.35 2.75.15.9-.65-.05-1.7-1.8-.3 2.9q-.45.95-6.15.85l-4.9-.95-1-.75.15-1.05" fill="#350d04" transform="translate(10.3 4.5)"/><path d="M-6.75.1q2.3-2.9 3.25-3.3 1.85-.7 5.5-.1 3.9.65 5.05 3.85L7.7 3.2q-.95.9-1.25.65L4.5.9q.35 4.55-.5 4.65-5.25.85-9.6-.6-1.95-.65-2.85-1.4L-9 2.9-6.75.1" fill="#9f4e2b" transform="translate(10.3 4.5)"/><path d="M.55-3.45q2.3.05 4.8 1.35 1.7.85 2.35 5.3l-.5.55-1.9-2.7-.95-.3-.75 3.7V2.4Q3.85.35 2.2.3-1.7.2-3.55-1.1l-.35-1.8 1.65-.6 2.8.05" fill="#803f22" transform="translate(10.3 4.5)"/><path d="M3.05-.25-1.7-.7Q-3.85-1.15-3-1.9q.75-.85 2.1-.8 4.35.1 5.7 1.6.55.7-1.75.85" fill="#61301b" transform="translate(10.3 4.5)"/><path d="m5.55 9.15.85-2.5.15 1.4-.2.95-.8.15" fill="#3d2717" transform="translate(10.3 4.5)"/><path d="m2.65 7.05 2.8-1.25q0 .85-.85 2.45-.8 1.7-1.95 2.05.75-.45 1.1-1.55.15-.65-.45-1.2l-.65-.5" fill="#64321a" transform="translate(10.3 4.5)"/><path d="M.1 1q1.55.25 3.2.05-3.35 1.5-5.75.7Q-4 1.2-4.55 0l-.35-1.15 1.15 1.3q1 .6 3.85.85" fill="#c66235" transform="translate(10.3 4.5)"/><path d="m-7.95 8.7 2.4.45L-2 9.9l-2.9.4q-1.25 0-3.05-1.6" fill="#994b28" transform="translate(10.3 4.5)"/><path d="M-7.1 8.95V8.8l2.2.2 2.05.8-2.4.05-1.85-.9" fill="#c68a73" transform="translate(10.3 4.5)"/><path d="m-1.05 1.35-2.7-1.2L2 1.4l-3.05-.05" fill="#eda689" transform="translate(10.3 4.5)"/></g></defs></svg>

<?xml version="1.0" encoding="UTF-8" standalone="no"?>
<svg xmlns:xlink="http://www.w3.org/1999/xlink" height="38.3px" width="36.05px" xmlns="http://www.w3.org/2000/svg">
  <g transform="matrix(1.0, 0.0, 0.0, 1.0, 23.8, 14.85)">
    <use height="17.45" transform="matrix(1.0, 0.0, 0.0, 1.0, -10.3, -4.5)" width="18.95" xlink:href="#shape0"/>
  </g>
  <defs>
    <g id="shape0" transform="matrix(1.0, 0.0, 0.0, 1.0, 10.3, 4.5)">
      <path d="M-6.45 -1.85 Q-4.55 -4.2 -2.25 -4.4 3.75 -4.9 6.25 -2.4 7.2 -1.45 8.15 1.0 L8.65 3.4 Q8.65 3.95 7.8 4.45 L8.15 5.15 Q8.45 7.1 8.1 8.2 8.0 9.2 7.1 9.6 L5.8 10.0 Q4.7 11.75 2.25 12.6 L-6.8 12.95 Q-9.05 12.55 -10.0 9.95 -10.8 7.75 -9.35 6.7 L-8.3 4.7 -8.75 4.2 -10.0 3.0 -8.65 1.0 -6.45 -1.85" fill="#000000" fill-rule="evenodd" stroke="none"/>
      <path d="M2.2 11.6 L-2.5 12.15 -7.0 11.9 Q-8.55 11.5 -9.2 9.9 -9.65 8.4 -8.95 7.45 -7.65 5.7 -6.95 3.55 L-6.15 1.05 Q-5.8 0.4 0.1 0.25 L6.15 0.25 7.45 5.0 Q8.0 7.25 7.2 8.35 L6.35 9.0 5.5 9.15 Q4.75 10.7 2.2 11.6" fill="#71381e" fill-rule="evenodd" stroke="none"/>
      <path d="M1.7 1.0 Q2.4 0.4 4.8 0.45 L6.95 2.5 7.45 5.0 7.35 8.05 6.8 5.4 5.65 3.7 5.6 5.4 3.8 7.15 Q1.55 8.15 -4.25 8.0 -6.35 7.95 -7.3 6.9 L-7.9 5.8 -7.15 3.9 Q1.55 1.25 1.7 1.0" fill="#64321a" fill-rule="evenodd" stroke="none"/>
      <path d="M-7.25 3.7 L3.8 -0.05 Q5.7 0.7 5.8 0.9 L7.15 3.65 7.3 4.55 6.65 4.5 4.95 2.7 4.65 5.6 Q4.2 6.55 -1.5 6.45 L-6.4 5.5 -7.4 4.75 -7.25 3.7" fill="#350d04" fill-rule="evenodd" stroke="none"/>
      <path d="M-6.75 0.1 Q-4.45 -2.8 -3.5 -3.2 -1.65 -3.9 2.0 -3.3 5.9 -2.65 7.05 0.55 L7.7 3.2 Q6.75 4.1 6.45 3.85 L4.5 0.9 Q4.85 5.45 4.0 5.55 -1.25 6.4 -5.6 4.95 -7.55 4.3 -8.45 3.55 L-9.0 2.9 -6.75 0.1" fill="#9f4e2b" fill-rule="evenodd" stroke="none"/>
      <path d="M0.55 -3.45 Q2.85 -3.4 5.35 -2.1 7.05 -1.25 7.7 3.2 L7.2 3.75 5.3 1.05 4.35 0.75 3.6 4.45 3.6 2.4 Q3.85 0.35 2.2 0.3 -1.7 0.2 -3.55 -1.1 L-3.9 -2.9 -2.25 -3.5 0.55 -3.45" fill="#803f22" fill-rule="evenodd" stroke="none"/>
      <path d="M3.05 -0.25 L-1.7 -0.7 Q-3.85 -1.15 -3.0 -1.9 -2.25 -2.75 -0.9 -2.7 3.45 -2.6 4.8 -1.1 5.35 -0.4 3.05 -0.25" fill="#61301b" fill-rule="evenodd" stroke="none"/>
      <path d="M5.55 9.15 L6.4 6.65 6.55 8.05 6.35 9.0 5.55 9.15" fill="#3d2717" fill-rule="evenodd" stroke="none"/>
      <path d="M2.65 7.05 L5.45 5.8 Q5.45 6.65 4.6 8.25 3.8 9.95 2.65 10.3 3.4 9.85 3.75 8.75 3.9 8.1 3.3 7.55 L2.65 7.05" fill="#64321a" fill-rule="evenodd" stroke="none"/>
      <path d="M0.1 1.0 Q1.65 1.25 3.3 1.05 -0.05 2.55 -2.45 1.75 -4.0 1.2 -4.55 0.0 L-4.9 -1.15 -3.75 0.15 Q-2.75 0.75 0.1 1.0" fill="#c66235" fill-rule="evenodd" stroke="none"/>
      <path d="M-7.95 8.7 L-5.55 9.15 -2.0 9.9 -4.9 10.3 Q-6.15 10.3 -7.95 8.7" fill="#994b28" fill-rule="evenodd" stroke="none"/>
      <path d="M-7.1 8.95 L-7.1 8.8 -4.9 9.0 -2.85 9.8 -5.25 9.85 -7.1 8.95" fill="#c68a73" fill-rule="evenodd" stroke="none"/>
      <path d="M-1.05 1.35 L-3.75 0.15 2.0 1.4 -1.05 1.35" fill="#eda689" fill-rule="evenodd" stroke="none"/>
    </g>
  </defs>
</svg>
